X:292
T: WILLST DU DENN MEIN SOEHNCHEN HABEN
N: E0890
O: Europa, Mitteleuropa, Deutschland, Brandenburg
R: Hochzeits -, Ehestands - Lied, Scherz - Lied, Bettelhochzeit
M: 3/4
L: 1/16
K: F
F3A | c4c4f3d | d2c2c4
A3c | B4G4c2B2 | A4z4
A2c2 | c2B2d2B2G2B2 | B2A2c2A2
F2A2A2A2B3G | G4F4
A2c2 | c2B2d2B2G2B2 | B2A2c2A2
F2A2A2A2B3G | G4F4

@@@ Tune index: 4605
